public/images/placeofinterrests/placeofinterrests.svg

<?xml version="1.0" encoding="UTF-8" standalone="no"?>
<svg width="63px" height="49px" viewBox="0 0 63 49" version="1.1" xmlns="http://www.w3.org/2000/svg" xmlns:xlink="http://www.w3.org/1999/xlink">
    <!-- Generator: Sketch 42 (36781) - http://www.bohemiancoding.com/sketch -->
    <title>placeofinterrests</title>
    <desc>Created with Sketch.</desc>
    <defs></defs>
    <g id="Page-1" stroke="none" stroke-width="1" fill="none" fill-rule="evenodd">
        <g id="Areas">
            <polygon id="Path-2" fill="#FFFFFF" points="0 0 3.89795918 44.2 56.5510204 49 63 3.4"></polygon>
            <path d="M47.7666667,37.7777778 L49,37.7777778 L49,39 L12,39 L12,37.7777778 L13.2333333,37.7777778 L13.2333333,31.6666667 L16.9333333,31.6666667 L16.9333333,19.4444444 L24.3333333,19.4444444 L24.3333333,25.5555556 L25.5666667,25.5555556 L25.5666667,13.3333333 L26.8,13.3333333 L26.8,10.8888889 L29.2666667,10.8888889 L29.2666667,9.66666667 L30.5,9.66666667 L30.5,6 L31.7333333,6 L31.7333333,9.66666667 L32.9666667,9.66666667 L32.9666667,10.8888889 L35.4333333,10.8888889 L35.4333333,13.3333333 L36.6666667,13.3333333 L36.6666667,26.7777778 L37.9,26.7777778 L37.9,21.8888889 L45.3,21.8888889 L45.3,34.1111111 L47.7666667,34.1111111 L47.7666667,37.7777778 Z M40.3666667,25.5555556 L40.3666667,26.7777778 L42.8333333,26.7777778 L42.8333333,25.5555556 L40.3666667,25.5555556 Z M40.3666667,29.2222222 L40.3666667,30.4444444 L42.8333333,30.4444444 L42.8333333,29.2222222 L40.3666667,29.2222222 Z M40.3666667,32.8888889 L40.3666667,34.1111111 L42.8333333,34.1111111 L42.8333333,32.8888889 L40.3666667,32.8888889 Z M32.9666667,21.8888889 L29.2666667,21.8888889 L29.2666667,23.1111111 L32.9666667,23.1111111 L32.9666667,21.8888889 Z M29.2666667,18.2222222 L32.9666667,18.2222222 L32.9666667,17 L29.2666667,17 L29.2666667,18.2222222 Z M32.9666667,26.7777778 L29.2666667,26.7777778 L29.2666667,28 L32.9666667,28 L32.9666667,26.7777778 Z M32.9666667,31.6666667 L29.2666667,31.6666667 L29.2666667,32.8888889 L32.9666667,32.8888889 L32.9666667,31.6666667 Z M19.4,23.1111111 L19.4,24.3333333 L21.8666667,24.3333333 L21.8666667,23.1111111 L19.4,23.1111111 Z M19.4,28 L19.4,29.2222222 L21.8666667,29.2222222 L21.8666667,28 L19.4,28 Z M19.4,32.8888889 L19.4,34.1111111 L21.8666667,34.1111111 L21.8666667,32.8888889 L19.4,32.8888889 Z" id="Shape" fill="#18252D" fill-rule="nonzero"></path>
        </g>
    </g>
</svg>

<svg width="63" height="49" viewBox="0 0 63 49" xmlns="http://www.w3.org/2000/svg"><title>placeofinterrests</title><g fill="none" fill-rule="evenodd"><path fill="#FFF" d="M0 0l3.898 44.2L56.551 49 63 3.4z"/><path d="M47.767 37.778H49V39H12v-1.222h1.233v-6.111h3.7V19.444h7.4v6.112h1.234V13.333H26.8V10.89h2.467V9.667H30.5V6h1.233v3.667h1.234v1.222h2.466v2.444h1.234v13.445H37.9v-4.89h7.4v12.223h2.467v3.667zm-7.4-12.222v1.222h2.466v-1.222h-2.466zm0 3.666v1.222h2.466v-1.222h-2.466zm0 3.667v1.222h2.466V32.89h-2.466zm-7.4-11h-3.7v1.222h3.7V21.89zm-3.7-3.667h3.7V17h-3.7v1.222zm3.7 8.556h-3.7V28h3.7v-1.222zm0 4.889h-3.7v1.222h3.7v-1.222zM19.4 23.11v1.222h2.467v-1.222H19.4zm0 4.889v1.222h2.467V28H19.4zm0 4.889v1.222h2.467V32.89H19.4z" fill="#18252D" fill-rule="nonzero"/></g></svg>
